components/Common/Svg/svgs/digit2.svg

<svg width="90" height="90" viewBox="0 0 90 90" fill="none" xmlns="http://www.w3.org/2000/svg">
<circle cx="45" cy="45" r="45" fill="#FFE603"/>
<path d="M36.6141 51.342C37.3848 50.73 37.7361 50.4467 37.6681 50.492C39.8894 48.656 41.6348 47.1487 42.9041 45.97C44.1961 44.7913 45.2841 43.556 46.1681 42.264C47.0521 40.972 47.4941 39.714 47.4941 38.49C47.4941 37.5607 47.2788 36.8353 46.8481 36.314C46.4174 35.7927 45.7714 35.532 44.9101 35.532C44.0488 35.532 43.3688 35.8607 42.8701 36.518C42.3941 37.1527 42.1561 38.0593 42.1561 39.238H36.5461C36.5914 37.3113 36.9994 35.702 37.7701 34.41C38.5634 33.118 39.5948 32.166 40.8641 31.554C42.1561 30.942 43.5841 30.636 45.1481 30.636C47.8454 30.636 49.8741 31.3273 51.2341 32.71C52.6168 34.0927 53.3081 35.8947 53.3081 38.116C53.3081 40.5413 52.4808 42.7967 50.8261 44.882C49.1714 46.9447 47.0634 48.962 44.5021 50.934H53.6821V55.66H36.6141V51.342Z" fill="black"/>
</svg>

<svg width="90" height="90" viewBox="0 0 90 90" fill="none" xmlns="http://www.w3.org/2000/svg"><circle cx="45" cy="45" r="45" fill="#FFE603"/><path d="M36.614 51.342c.77-.612 1.122-.895 1.054-.85 2.221-1.836 3.967-3.343 5.236-4.522 1.292-1.179 2.38-2.414 3.264-3.706.884-1.292 1.326-2.55 1.326-3.774 0-.93-.215-1.655-.646-2.176-.43-.521-1.077-.782-1.938-.782s-1.541.329-2.04.986c-.476.635-.714 1.541-.714 2.72h-5.61c.045-1.927.453-3.536 1.224-4.828.793-1.292 1.825-2.244 3.094-2.856 1.292-.612 2.72-.918 4.284-.918 2.697 0 4.726.691 6.086 2.074 1.383 1.383 2.074 3.185 2.074 5.406 0 2.425-.827 4.68-2.482 6.766-1.655 2.063-3.763 4.08-6.324 6.052h9.18v4.726H36.614v-4.318Z" fill="#000"/></svg>
